X:6107
T:Sligo Indians
O:england
M:6/8
L:1/8
C:Tony DeMarco
S:Source: Larry Nugent
R:Jig
K:DMix
Add Ada | gef dcG | Add Ada | ~g3 age |
Add Ada | ged c2e | dcG cAG |1 ed^c d2=c :|2 ed^c d2e |:
=f3 g3 | ag^f ged | (f ~g2) ~a3 | _bag age |
=fAd gAd | ag^f ged | dcA GFG | Ad^c d2e :|
